X:1
T:O Praise the LORD, for It Is Good
T:Text: Psalm 147:1-13; vers. Psalter, 1912, alt. Tune: John H. Stockton, 1874
T:CMD MINERVA www.hymnary.org/text/praise_ye_the_lord_for_it_is_good_to_sin
T:O Praise the LORD, for It Is Good
T:This hymn is in the public domain. You may freely use this score for personal and congregational worship. If you reproduce the score, please credit Hymnary.org as the source. 
T:This hymn is in the public domain. You may freely use this score for personal and congregational worship. If you reproduce the score, please credit Hymnary.org as the source. 
Z:This hymn is in the public domain. You may freely use this score for personal and congregational worship. If you reproduce the score, please credit Hymnary.org as the source.
%%score ( 1 2 ) ( 3 4 )
L:1/8
M:4/4
K:G
V:1 treble nm="SOPRANO ALTO" snm="S. A."
V:2 treble 
V:3 bass nm="TENOR BASS" snm="T. B."
V:4 bass 
V:1
"^G""^1""^2""^3" D2 | D3 E D2 G2 | B3 B A2 G2 | d2 d2 B2 G2 |"^D" A6 |"^G" B2 | d3 d B2 G2 | %7
w: O|praise the LORD, for|it is good to|sing un- to our|God;|'tis|right and pleas- ant|
w: Our|Lord is great: he|calls by name and|counts the stars of|night;|his|wis- dom is un-|
w: No|hu- man might, no|earth- ly pride de-|lights the LORD a-|bove;|in|those who fear him|
"^C" G3 E E2 D2 |"^G/D" D2 G2 B2"^D7" A2 |"^G" G6 | d2 | d3 B BA G2 |"^C" G3 E E2 D2 | %13
w: for his saints to|tell his praise a-|broad.|The|LORD our God * builds|up his church, finds|
w: search- a- ble, and|won- drous is his|might.|The|LORD up- holds * the|poor and meek but|
w: he de- lights, in|those who trust his|love.|O|Zi- on, praise _ the|LORD your God, his|
"^G" D2 G2 B2 G2 |"^D" A6 |1"^D7" d2 |"^G" d3 B BA G2 |"^C" G3 E E2"^G" D2 | %18
w: those who draw a-|part;|he|binds their wounds _ and|gent- ly leads, he|
w: brings the wick- ed|low;|sing|praise to him * who|sends the rain, whose|
w: won- drous love con-|fess;|he|is your glo- * ry|and your strength, he|
"^G/D" D2 G2 B2"^D7" A2 |"^G" G6 x2 |] %20
w: heals the bro- ken|heart.|
w: care the cat- tle|know.|
w: will your chil- dren|bless.|
V:2
 B,2 | B,3 C B,2 D2 | G3 G D2 D2 | G2 G2 G2 D2 | F6 | G2 | G3 G G2 D2 | E3 C C2 B,2 | %8
 B,2 D2 D2 D2 | D6 | G2 | G3 G D2 D2 | E3 C C2 B,2 | B,2 D2 G2 G2 | F6 |1 F2 | G3 G D2 D2 | %17
 E3 C C2 B,2 | B,2 D2 D2 D2 | D6 x2 |] %20
V:3
 G,2 | G,3 G, G,2 B,2 | D3 D C2 B,2 | B,2 B,2 D2 D2 | D6 | D2 | B,3 B, D2 D2 | C3 G, G,2 G,2 | %8
 G,2 B,2 D2 C2 | B,6 | B,2 | B,3 D DC B,2 | C3 G, G,2 G,2 | B,2 B,2 D2 B,2 | D6 |1 C2 | %16
 B,3 D DC B,2 | C3 G, G,2 G,2 | G,2 B,2 D2 C2 | B,6 x2 |] %20
V:4
 G,2 | G,3 G, G,2 G,2 | G,3 G, G,2 G,2 | G,,2 G,,2 G,,2 B,,2 | D,6 | G,2 | G,3 G, G,2 B,,2 | %7
 C,3 C, C,2 G,,2 | D,2 D,2 D,2 D,2 | G,6 | G,2 | G,3 G, G,2 G,2 | C,3 C, C,2 G,,2 | %13
 G,2 G,2 G,2 G,2 | D,6 |1 D,2 | G,,3 G,, G,,2 G,,2 | C,3 C, C,2 G,,2 | D,2 D,2 D,2 D,2 | G,6 x2 |] %20

